images/signal.svg

<?xml version="1.0" encoding="UTF-8"?>
<svg xmlns="http://www.w3.org/2000/svg" xmlns:xlink="http://www.w3.org/1999/xlink" width="160" height="160" viewBox="0 0 160 160">
<path fill-rule="nonzero" fill="rgb(23.137255%, 27.058824%, 99.215686%)" fill-opacity="1" d="M 80 0 C 84.152344 0 88.226562 0.316406 92.207031 0.925781 L 91.0625 8.339844 C 87.457031 7.785156 83.761719 7.5 80 7.5 C 76.238281 7.5 72.542969 7.785156 68.9375 8.339844 L 67.792969 0.925781 C 71.773438 0.316406 75.851562 0 80 0 Z M 80 0 "/>
<path fill-rule="nonzero" fill="rgb(23.137255%, 27.058824%, 99.215686%)" fill-opacity="1" d="M 98.984375 2.265625 L 97.207031 9.554688 C 104.515625 11.332031 111.390625 14.21875 117.644531 18.027344 L 121.539062 11.617188 C 114.636719 7.414062 107.050781 4.230469 98.984375 2.265625 Z M 98.984375 2.265625 "/>
<path fill-rule="nonzero" fill="rgb(23.137255%, 27.058824%, 99.215686%)" fill-opacity="1" d="M 127.28125 15.460938 L 122.847656 21.507812 C 128.824219 25.894531 134.105469 31.175781 138.492188 37.152344 L 144.542969 32.722656 C 139.703125 26.125 133.875 20.300781 127.28125 15.460938 Z M 127.28125 15.460938 "/>
<path fill-rule="nonzero" fill="rgb(23.137255%, 27.058824%, 99.215686%)" fill-opacity="1" d="M 148.378906 38.460938 L 141.96875 42.355469 C 145.777344 48.609375 148.664062 55.484375 150.441406 62.796875 L 157.730469 61.015625 C 155.765625 52.949219 152.582031 45.363281 148.378906 38.460938 Z M 148.378906 38.460938 "/>
<path fill-rule="nonzero" fill="rgb(23.137255%, 27.058824%, 99.215686%)" fill-opacity="1" d="M 159.078125 67.792969 L 151.664062 68.9375 C 152.21875 72.542969 152.503906 76.238281 152.503906 80 C 152.503906 83.761719 152.21875 87.457031 151.664062 91.0625 L 159.078125 92.207031 C 159.6875 88.226562 160.003906 84.148438 160.003906 80 C 160.003906 75.847656 159.6875 71.773438 159.078125 67.792969 Z M 159.078125 67.792969 "/>
<path fill-rule="nonzero" fill="rgb(23.137255%, 27.058824%, 99.215686%)" fill-opacity="1" d="M 141.96875 117.640625 C 145.777344 111.386719 148.664062 104.511719 150.441406 97.199219 L 157.730469 98.980469 C 155.769531 107.046875 152.582031 114.632812 148.382812 121.535156 Z M 141.96875 117.640625 "/>
<path fill-rule="nonzero" fill="rgb(23.137255%, 27.058824%, 99.215686%)" fill-opacity="1" d="M 138.488281 122.851562 L 144.539062 127.28125 C 139.699219 133.878906 133.875 139.703125 127.277344 144.542969 L 122.847656 138.492188 C 128.824219 134.105469 134.105469 128.828125 138.488281 122.851562 Z M 138.488281 122.851562 "/>
<path fill-rule="nonzero" fill="rgb(23.137255%, 27.058824%, 99.215686%)" fill-opacity="1" d="M 117.640625 141.96875 L 121.535156 148.382812 C 114.632812 152.582031 107.046875 155.769531 98.980469 157.730469 L 97.199219 150.441406 C 104.507812 148.664062 111.386719 145.777344 117.640625 141.96875 Z M 117.640625 141.96875 "/>
<path fill-rule="nonzero" fill="rgb(23.137255%, 27.058824%, 99.215686%)" fill-opacity="1" d="M 91.0625 151.660156 L 92.207031 159.074219 C 88.226562 159.683594 84.148438 160 80 160 C 75.847656 160 71.773438 159.683594 67.792969 159.074219 L 68.9375 151.660156 C 72.542969 152.214844 76.238281 152.5 80 152.5 C 83.761719 152.5 87.457031 152.214844 91.0625 151.660156 Z M 91.0625 151.660156 "/>
<path fill-rule="nonzero" fill="rgb(23.137255%, 27.058824%, 99.215686%)" fill-opacity="1" d="M 62.792969 150.449219 L 61.015625 157.734375 C 54.957031 156.261719 49.167969 154.097656 43.738281 151.328125 L 36.144531 153.101562 L 34.441406 145.796875 L 44.699219 143.402344 L 47.140625 144.648438 C 52.058594 147.152344 57.300781 149.113281 62.792969 150.449219 Z M 62.792969 150.449219 "/>
<path fill-rule="nonzero" fill="rgb(23.137255%, 27.058824%, 99.215686%)" fill-opacity="1" d="M 28.109375 147.269531 L 29.8125 154.574219 L 16.800781 157.609375 C 8.140625 159.632812 0.367188 151.859375 2.386719 143.199219 L 5.425781 130.183594 L 12.726562 131.886719 L 9.691406 144.902344 C 8.933594 148.148438 11.847656 151.0625 15.09375 150.308594 Z M 28.109375 147.269531 "/>
<path fill-rule="nonzero" fill="rgb(23.137255%, 27.058824%, 99.215686%)" fill-opacity="1" d="M 14.203125 125.558594 L 6.898438 123.855469 L 8.671875 116.261719 C 5.90625 110.832031 3.742188 105.042969 2.265625 98.984375 L 9.550781 97.203125 C 10.886719 102.695312 12.847656 107.941406 15.355469 112.859375 L 16.597656 115.300781 Z M 14.203125 125.558594 "/>
<path fill-rule="nonzero" fill="rgb(23.137255%, 27.058824%, 99.215686%)" fill-opacity="1" d="M 8.335938 91.0625 L 0.925781 92.207031 C 0.316406 88.226562 0 84.148438 0 80 C 0 75.847656 0.316406 71.773438 0.925781 67.792969 L 8.339844 68.9375 C 7.785156 72.542969 7.5 76.238281 7.5 80 C 7.5 83.761719 7.785156 87.457031 8.335938 91.0625 Z M 8.335938 91.0625 "/>
<path fill-rule="nonzero" fill="rgb(23.137255%, 27.058824%, 99.215686%)" fill-opacity="1" d="M 9.554688 62.796875 L 2.265625 61.015625 C 4.230469 52.949219 7.414062 45.363281 11.617188 38.460938 L 18.027344 42.355469 C 14.21875 48.609375 11.332031 55.484375 9.554688 62.796875 Z M 9.554688 62.796875 "/>
<path fill-rule="nonzero" fill="rgb(23.137255%, 27.058824%, 99.215686%)" fill-opacity="1" d="M 21.511719 37.152344 L 15.460938 32.71875 C 20.300781 26.125 26.125 20.296875 32.722656 15.457031 L 37.152344 21.507812 C 31.175781 25.894531 25.894531 31.175781 21.507812 37.152344 Z M 21.511719 37.152344 "/>
<path fill-rule="nonzero" fill="rgb(23.137255%, 27.058824%, 99.215686%)" fill-opacity="1" d="M 42.355469 18.027344 L 38.460938 11.617188 C 45.363281 7.414062 52.949219 4.230469 61.015625 2.265625 L 62.796875 9.554688 C 55.484375 11.332031 48.609375 14.21875 42.355469 18.027344 Z M 42.355469 18.027344 "/>
<path fill-rule="nonzero" fill="rgb(23.137255%, 27.058824%, 99.215686%)" fill-opacity="1" d="M 145 80 C 145 115.898438 115.898438 145 80 145 C 68.613281 145 57.910156 142.070312 48.605469 136.929688 C 47.707031 136.433594 46.664062 136.269531 45.664062 136.503906 L 16.753906 143.25 L 23.5 114.335938 C 23.730469 113.339844 23.566406 112.292969 23.074219 111.394531 C 17.929688 102.089844 15 91.386719 15 80 C 15 44.101562 44.101562 15 80 15 C 115.898438 15 145 44.101562 145 80 Z M 145 80 "/>
</svg>

<?xml version="1.0" encoding="UTF-8"?>
<svg xmlns="http://www.w3.org/2000/svg" width="160" height="160" fill="none" version="1.1" viewBox="0 0 160 160">
  <g fill="#3b45fd">
    <path d="m 80,0 c 4.1505,0 8.2271,0.31607 12.2072,0.925452 L 91.0628,8.3387 C 87.4559,7.78644 83.7614,7.5 80,7.5 76.2388,7.5 72.5445,7.78641 68.9377,8.33862 L 67.7933,0.925375 C 71.7732,0.316043 75.8497,0 80,0 Z"/>
    <path d="m98.985 2.2662-1.7798 7.2876c7.3099 1.779 14.185 4.6661 20.439 8.4731l3.895-6.411c-6.901-4.2009-14.488-7.3866-22.554-9.3496z"/>
    <path d="m127.28 15.459-4.432 6.0507c5.977 4.3861 11.257 9.6664 15.643 15.644l6.051-4.4324c-4.84-6.5957-10.666-12.422-17.262-17.262z"/>
    <path d="m148.38 38.462-6.411 3.8942c3.807 6.2541 6.694 13.13 8.473 20.44l7.288-1.7798c-1.963-8.0657-5.149-15.653-9.35-22.554z"/>
    <path d="m159.08 67.793-7.414 1.1444c0.553 3.6067 0.839 7.301 0.839 11.062 0 3.7614-0.286 7.4559-0.839 11.063l7.414 1.1444c0.609-3.9801 0.925-8.0567 0.925-12.207 0-4.1503-0.316-8.2267-0.925-12.207z"/>
    <path d="m141.97 117.64c3.807-6.255 6.694-13.13 8.473-20.44l7.288 1.7798c-1.963 8.0662-5.149 15.653-9.35 22.554z"/>
    <path d="m138.49 122.85 6.051 4.432c-4.84 6.596-10.666 12.422-17.262 17.262l-4.433-6.051c5.978-4.386 11.258-9.666 15.644-15.643z"/>
    <path d="m117.64 141.97 3.894 6.411c-6.901 4.201-14.488 7.387-22.554 9.35l-1.7798-7.288c7.3095-1.779 14.186-4.666 20.44-8.473z"/>
    <path d="m91.062 151.66 1.1445 7.414c-3.9799 0.609-8.0564 0.925-12.207 0.925-4.1505 0-8.2272-0.316-12.207-0.925l1.1442-7.413c3.6054 0.552 7.2997 0.838 11.063 0.838 3.7612 0 7.4555-0.286 11.062-0.839z"/>
    <path d="m62.794 150.45-1.7794 7.286c-6.0589-1.475-11.848-3.639-17.278-6.406l-7.5927 1.772-1.7042-7.304 10.26-2.394 2.4408 1.243c4.9187 2.506 10.162 4.467 15.654 5.803z"/>
    <path d="m28.11 147.27 1.7042 7.304-13.014 3.036c-8.6608 2.021-16.434-5.752-14.413-14.412l3.0367-13.015 7.3038 1.704-3.0368 13.015c-0.75782 3.248 2.157 6.162 5.4048 5.405z"/>
    <path d="m14.204 125.56-7.3038-1.704 1.7716-7.593c-2.7666-5.431-4.9312-11.22-6.4058-17.279l7.2859-1.7794c1.336 5.4911 3.2971 10.735 5.8028 15.654l1.2435 2.441z"/>
    <path d="M 8.33759,91.0624 0.925362,92.2066 C 0.316038,88.2267 0,84.1503 0,80 0,75.8495 0.316067,71.7729 0.925446,67.7928 L 8.33869,68.9372 C 7.78644,72.5442 7.5,76.2386 7.5,80 c 0,3.7631 0.28613,7.4572 0.83759,11.0624 z"/>
    <path d="m9.5537 62.795-7.2876-1.7798c1.963-8.0657 5.1487-15.653 9.3496-22.554l6.411 3.8942c-3.807 6.2541-6.6941 13.13-8.4731 20.44z"/>
    <path d="m21.51 37.153-6.0507-4.4324c4.8398-6.5957 10.666-12.422 17.262-17.262l4.4324 6.0507c-5.9773 4.3861-11.258 9.6663-15.644 15.644z"/>
    <path d="m42.356 18.027-3.8943-6.4111c6.9011-4.2008 14.488-7.3864 22.554-9.3494l1.7798 7.2876c-7.3096 1.779-14.185 4.6659-20.44 8.473z"/>
    <path d="m145 80c0 35.899-29.101 65-65 65-11.387 0-22.089-2.928-31.396-8.072-0.8961-0.495-1.9417-0.658-2.9389-0.426l-28.913 6.747 6.7465-28.914c0.2326-0.997 0.0692-2.043-0.426-2.939-5.1439-9.307-8.0717-20.01-8.0717-31.396 0-35.898 29.102-65 65-65 35.899 0 65 29.102 65 65z"/>
  </g>
</svg>
